build/assets/img/icons/success.svg

<svg width="34" height="34" viewBox="0 0 34 34" fill="none" xmlns="http://www.w3.org/2000/svg">
<path d="M14.583 20.542L10.667 16.583C10.389 16.333 10.0557 16.208 9.66701 16.208C9.27767 16.208 8.93034 16.347 8.62501 16.625C8.34701 16.9303 8.20801 17.2777 8.20801 17.667C8.20801 18.0557 8.34701 18.389 8.62501 18.667L13.625 23.625C13.875 23.903 14.1943 24.042 14.583 24.042C14.9723 24.042 15.292 23.903 15.542 23.625L25.375 13.833C25.653 13.5557 25.785 13.2223 25.771 12.833C25.757 12.4443 25.611 12.111 25.333 11.833C25.0557 11.5557 24.7153 11.417 24.312 11.417C23.9093 11.417 23.5693 11.5557 23.292 11.833L14.583 20.542ZM17 33.667C14.6667 33.667 12.486 33.2363 10.458 32.375C8.43067 31.5137 6.66701 30.333 5.16701 28.833C3.66701 27.333 2.48634 25.5693 1.62501 23.542C0.763675 21.514 0.333008 19.3333 0.333008 17C0.333008 14.6667 0.763675 12.486 1.62501 10.458C2.48634 8.43067 3.66701 6.66701 5.16701 5.16701C6.66701 3.66701 8.43067 2.48634 10.458 1.62501C12.486 0.763675 14.6667 0.333008 17 0.333008C19.3333 0.333008 21.514 0.763675 23.542 1.62501C25.5693 2.48634 27.333 3.66701 28.833 5.16701C30.333 6.66701 31.5137 8.43067 32.375 10.458C33.2363 12.486 33.667 14.6667 33.667 17C33.667 19.3333 33.2363 21.514 32.375 23.542C31.5137 25.5693 30.333 27.333 28.833 28.833C27.333 30.333 25.5693 31.5137 23.542 32.375C21.514 33.2363 19.3333 33.667 17 33.667ZM17 30.875C20.9167 30.875 24.2083 29.5417 26.875 26.875C29.5417 24.2083 30.875 20.9167 30.875 17C30.875 13.0833 29.5417 9.79167 26.875 7.12501C24.2083 4.45834 20.9167 3.12501 17 3.12501C13.0833 3.12501 9.79167 4.45834 7.12501 7.12501C4.45834 9.79167 3.12501 13.0833 3.12501 17C3.12501 20.9167 4.45834 24.2083 7.12501 26.875C9.79167 29.5417 13.0833 30.875 17 30.875Z" fill="#5565EC"/>
</svg>

<svg width="34" height="34" fill="none" xmlns="http://www.w3.org/2000/svg"><path d="M14.583 20.542l-3.916-3.959a1.444 1.444 0 00-1-.375c-.39 0-.737.139-1.042.417a1.505 1.505 0 00-.417 1.042c0 .389.139.722.417 1l5 4.958c.25.278.57.417.958.417.39 0 .709-.139.959-.417l9.833-9.792c.278-.277.41-.61.396-1a1.442 1.442 0 00-.438-1 1.388 1.388 0 00-1.021-.416c-.403 0-.743.139-1.02.416l-8.709 8.709zM17 33.667c-2.333 0-4.514-.43-6.542-1.292-2.027-.861-3.791-2.042-5.291-3.542-1.5-1.5-2.68-3.264-3.542-5.291C.764 21.514.333 19.333.333 17s.43-4.514 1.292-6.542c.861-2.027 2.042-3.791 3.542-5.291 1.5-1.5 3.264-2.68 5.291-3.542C12.486.764 14.667.333 17 .333s4.514.43 6.542 1.292c2.027.861 3.791 2.042 5.291 3.542 1.5 1.5 2.68 3.264 3.542 5.291.861 2.028 1.292 4.209 1.292 6.542s-.43 4.514-1.292 6.542c-.861 2.027-2.042 3.791-3.542 5.291-1.5 1.5-3.264 2.68-5.291 3.542-2.028.861-4.209 1.292-6.542 1.292zm0-2.792c3.917 0 7.208-1.333 9.875-4s4-5.958 4-9.875-1.333-7.208-4-9.875-5.958-4-9.875-4-7.208 1.333-9.875 4-4 5.958-4 9.875 1.333 7.208 4 9.875 5.958 4 9.875 4z" fill="#5565EC"/></svg>
